X:170
T:Lord Donnel's Reel
O:No 170 William Clarke of Feltwell
M:2/4
L:1/8
K:G
N:Transcribed by M Humphreys May 2010
N:Bar line removed in Bar6-7 .
d3e|dBgB |defg| aAAB| d3 e|dBgB| (AB/c/) BA |BG G2:||:
DGBG| AGBG| DGBG| AGEG| DGBG|AGBG| d>edc| BG G2|
DGBG| AGBG| DGBG| AGEG| BAGF|GFED| EFGA| BG G2||

